X: 42848
T: Wild Geese, The
R: waltz
M: 3/4
K: Gmajor
G3/2A/|B2 A/4G3/2 G/4A/4B3/2|A2 B2 (3AGE|D3 E3 G/G/|G4G/4A/4B3/2|
c4 A3/B/c|B4 A/4G3/2|G/4A/4B3/2 Ae3d3/2B/|A4(/A/4B3/2|
c2 BA c/4B/A3/2|B2B2 4A/G3/2 G/4A/4B3/2|A2 G/4A/4B3/2 c/B/A/G/|E4 G3/2A/|
B2B2 4A/4G3/2 G/4A/4B3/2|A2B/A/G/E/ D2|E3 G2G|G4 G3/2A/|
B3/2A/G3/2A/B3/2G/|A3/2G/E3/2G/A3/2E/|G3/2E/D3/2E/G3/2G/|G4 G3/2A/|
Bc3/2B/A3/2B/c3/2A/|B3/2A/G3/2A/B3/2G/|A e3 d3/2B/|A4 G3/2A|
c3/B2/A2/4G3/2A/|B3/2A/G3/2A/B3/2G/|A2 G/4A/4B3/2 c/B/A/G/|E4 G3/2A/|
B2B2/4A/G3/2 G/4A/4B3/2|A2 B/A/G/E/ D2|E3G2G|G2 ze d3/B2/|
G2 z e d3/2B/|G2 ze d3/2B/|c2 ze d3/2B/|c2 ze d3/c2/|
B2 ze d3/2c/|B2 ze d3/2B/|A2 a3/e2// d3/2B/|A2 a3/e2/ / e/ d3/2B/|
c2 ze d3/2c/|B2 ze d3/2B|A2 G/4A/B3/2 c/B/A/G/|E4G3/2A/|
B2 B/4A/4G3/2) (G/4A/4B3/2)|A2(B/A/G/E/) D2|E3 G G2|G4||

